Desktop/project_createx/public/images/Contacts/clock.svg

<svg width="40" height="40" viewBox="0 0 40 40" fill="none" xmlns="http://www.w3.org/2000/svg">
<path d="M21.668 10.8337C21.668 9.91318 20.9218 9.16699 20.0013 9.16699C19.0808 9.16699 18.3346 9.91318 18.3346 10.8337V20.0003C18.3346 20.4424 18.5102 20.8663 18.8228 21.1788L23.8228 26.1788C24.4737 26.8297 25.5289 26.8297 26.1798 26.1788C26.8307 25.528 26.8307 24.4727 26.1798 23.8218L21.668 19.31V10.8337Z" fill="#7772F1"/>
<path fill-rule="evenodd" clip-rule="evenodd" d="M20.0013 1.66699C9.87608 1.66699 1.66797 9.8751 1.66797 20.0003C1.66797 30.1255 9.87608 38.3337 20.0013 38.3337C30.1265 38.3337 38.3346 30.1255 38.3346 20.0003C38.3346 9.8751 30.1265 1.66699 20.0013 1.66699ZM5.0013 20.0003C5.0013 11.7161 11.717 5.00033 20.0013 5.00033C28.2856 5.00033 35.0013 11.7161 35.0013 20.0003C35.0013 28.2846 28.2856 35.0003 20.0013 35.0003C11.717 35.0003 5.0013 28.2846 5.0013 20.0003Z" fill="#7772F1"/>
</svg>

<svg xmlns="http://www.w3.org/2000/svg" width="40" height="40" fill="none"><path fill="#7772F1" d="M21.668 10.834a1.667 1.667 0 1 0-3.333 0V20c0 .442.175.866.488 1.179l5 5a1.667 1.667 0 1 0 2.357-2.357l-4.512-4.512z"/><path fill="#7772F1" fill-rule="evenodd" d="M20.001 1.667C9.876 1.667 1.668 9.875 1.668 20s8.208 18.334 18.333 18.334S38.335 30.125 38.335 20 30.127 1.667 20 1.667M5.001 20c0-8.284 6.716-15 15-15 8.285 0 15 6.716 15 15 0 8.285-6.715 15-15 15s-15-6.715-15-15" clip-rule="evenodd"/></svg>
